icons/eye-closed-24.svg

<svg xmlns="http://www.w3.org/2000/svg" width="24" height="24" viewBox="0 0 24 24"><path d="M8.052 5.837A9.715 9.715 0 0112 5c2.955 0 5.309 1.315 7.06 2.864 1.756 1.553 2.866 3.307 3.307 4.08a.11.11 0 01.016.055.122.122 0 01-.017.06 16.766 16.766 0 01-1.53 2.218.75.75 0 101.163.946 18.253 18.253 0 001.67-2.42 1.607 1.607 0 00.001-1.602c-.485-.85-1.69-2.757-3.616-4.46C18.124 5.034 15.432 3.5 12 3.5c-1.695 0-3.215.374-4.552.963a.75.75 0 00.604 1.373z"/><path fill-rule="evenodd" d="M19.166 17.987C17.328 19.38 14.933 20.5 12 20.5c-3.432 0-6.125-1.534-8.054-3.24C2.02 15.556.814 13.648.33 12.798a1.606 1.606 0 01.001-1.6A18.305 18.305 0 013.648 7.01L1.317 5.362a.75.75 0 11.866-1.224l20.5 14.5a.75.75 0 11-.866 1.224l-2.651-1.875zM4.902 7.898c-1.73 1.541-2.828 3.273-3.268 4.044a.118.118 0 00-.017.059c0 .015.003.034.016.055.441.774 1.551 2.527 3.307 4.08C6.69 17.685 9.045 19 12 19c2.334 0 4.29-.82 5.874-1.927l-3.516-2.487a3.5 3.5 0 01-5.583-3.949L4.902 7.899z"/></svg>

<svg xmlns="http://www.w3.org/2000/svg" width="24" height="24" viewBox="0 0 24 24">
  <defs/>
  <path d="M8.052,5.837 A9.715 9.715 0 0 1 12,5 C14.955,5 17.309,6.315 19.06,7.864 C20.816,9.417 21.926,11.171 22.367,11.944 A0.11 0.11 0 0 1 22.383,11.999 A0.122 0.122 0 0 1 22.366,12.059 A16.766 16.766 0 0 1 20.836,14.277 A0.75 0.75 0 1 0 21.999,15.223 A18.253 18.253 0 0 0 23.669,12.803 A1.607 1.607 0 0 0 23.67,11.201 C23.185,10.351 21.98,8.444 20.054,6.741 C18.124,5.034 15.432,3.5 12,3.5 C10.305,3.5 8.785,3.874 7.448,4.463 A0.75 0.75 0 0 0 8.052,5.836 Z"/>
  <path d="M19.166,17.987 C17.328,19.38 14.933,20.5 12,20.5 C8.568,20.5 5.875,18.966 3.946,17.26 C2.02,15.556 0.814,13.648 0.33,12.798 C0.046,12.302 0.046,11.693 0.331,11.198 C1.226,9.647 2.343,8.236 3.648,7.01 L1.317,5.362 C1.09,5.211 0.962,4.948 0.985,4.676 C1.007,4.404 1.176,4.165 1.425,4.053 C1.674,3.941 1.965,3.974 2.183,4.138 L22.683,18.638 C22.91,18.789 23.038,19.052 23.015,19.324 C22.993,19.596 22.824,19.835 22.575,19.947 C22.326,20.059 22.035,20.026 21.817,19.862 Z M4.902,7.898 C3.172,9.439 2.074,11.171 1.634,11.942 C1.623,11.96 1.617,11.98 1.617,12.001 C1.617,12.016 1.62,12.035 1.633,12.056 C2.074,12.83 3.184,14.583 4.94,16.136 C6.69,17.685 9.045,19 12,19 C14.334,19 16.29,18.18 17.874,17.073 L14.358,14.586 C13.143,15.695 11.32,15.809 9.977,14.859 C8.634,13.909 8.134,12.152 8.775,10.637 L4.902,7.899 Z"/>
</svg>
